X: 2429
T: Ballinalacken, The
R: reel
M: 4/4
K: Ddorian
Addd AddB|c2 ec Gcec|Addc Addc|Gccd ecdc|
Addd AddB|c2 ec GceE|FAGE F3 A|1 cAGE D3 G:|2 cAGE D2 DE||
F2 FE FGAF|F2 AF GECE|F2 FE FAcA|GFEF D2 DE|
F2 FE FGAF|F2 AF GECE|DEFG A2 dB|1 cAGE D2 DE:|2 cAGE D3 G||

